packages/design-assets/icons/16px/Tools.svg

<?xml version="1.0" encoding="UTF-8"?>
<svg width="16px" height="16px" viewBox="0 0 16 16" version="1.1" xmlns="http://www.w3.org/2000/svg" xmlns:xlink="http://www.w3.org/1999/xlink">
    <!-- Generator: Sketch 54.1 (76490) - https://sketchapp.com -->
    <title>Icons/16px/Tools</title>
    <desc>Created with Sketch.</desc>
    <g id="Icons/16px/Tools" stroke="none" stroke-width="1" fill="none" fill-rule="evenodd">
        <path d="M5.73303029,6.63799029 L3.38752,4.29248 L2.56,5.12 L-2.2204596e-15,2.56 L2.56,-7.78932474e-13 L5.12,2.56 L4.29248,3.38752 L6.73345177,5.82849177 L7.84,4.93312 C7.73696,4.58624 7.68,4.22016 7.68,3.84 C7.68,1.71904 9.39904,2.91322522e-13 11.52,2.91322522e-13 C12.07616,2.91322522e-13 12.60288,0.12096 13.07968,0.33344 L11.02656,2.38656 L12.97344,4.33344 L15.02656,2.27968 C15.23904,2.75712 15.36,3.28384 15.36,3.84 C15.36,5.96096 13.64096,7.68 11.52,7.68 C11.13984,7.68 10.77376,7.62304 10.42688,7.52 L4.83968,14.42496 C4.31488,15.01952 3.5584,15.36 2.76544,15.36 C2.02688,15.36 1.33248,15.07264 0.81024,14.54976 C0.27264,14.0128 -0.0224,13.26848 0.00128,12.50816 C0.02432,11.74848 0.3648,11.024 0.93504,10.52032 L5.73303029,6.63799029 Z M12.1216,8.9216 L14.6976,11.49696 C15.58144,12.3808 15.58144,13.81312 14.6976,14.69696 C13.81376,15.5808 12.38144,15.5808 11.4976,14.69696 L8.60608,11.80544 L10.93632,8.92608 C11.13088,8.94848 11.3248,8.96 11.52,8.96 C11.72352,8.96 11.92384,8.94464 12.1216,8.9216 Z" id="i-16-tools" fill="#818F99"></path>
    </g>
</svg>

<svg width="16" height="16" xmlns="http://www.w3.org/2000/svg"><path d="M5.733 6.638L3.388 4.292l-.828.828L0 2.56 2.56 0l2.56 2.56-.828.828 2.441 2.44 1.107-.895a3.84 3.84 0 0 1 5.24-4.6l-2.053 2.054 1.946 1.946 2.054-2.053a3.84 3.84 0 0 1-4.6 5.24L4.84 14.425A2.768 2.768 0 0 1 0 12.508c.023-.76.364-1.484.934-1.988l4.798-3.882zm6.389 2.284l2.576 2.575a2.262 2.262 0 1 1-3.2 3.2l-2.892-2.892 2.33-2.879c.195.022.389.034.584.034.204 0 .404-.015.602-.038z" fill="#818F99" fill-rule="evenodd"/></svg>
